packages/icons/src/assets/meta.svg

<svg width="16" height="16" viewBox="0 0 16 16" fill="none" xmlns="http://www.w3.org/2000/svg">
  <path d="M7.99995 4.91752C9.00496 3.49165 10.2897 2.77807 11.6309 2.86411C13.2116 2.96552 14.5411 4.16151 15.2606 5.89261C15.9638 7.58453 16.1559 9.30999 15.8774 10.6505C15.6057 11.9577 14.7994 13.1429 13.3417 13.1429C12.0192 13.1429 11.0208 12.2838 10.159 11.1227C9.45752 10.1776 8.76328 8.91699 8.00005 7.46215C7.2368 8.91701 6.54248 10.1775 5.84096 11.1227C4.97922 12.2838 3.98083 13.1428 2.65835 13.1429C1.20066 13.1429 0.394289 11.9577 0.122628 10.6505C-0.155946 9.30999 0.0361609 7.58452 0.739385 5.89261C1.4589 4.16152 2.78845 2.96552 4.36908 2.86411C5.71033 2.77805 6.99494 3.49168 7.99995 4.91752ZM7.29507 6.1211C6.38159 4.51513 5.3054 4.01036 4.45298 4.06505C3.5297 4.1243 2.52227 4.85613 1.90637 6.33794C1.27419 7.85892 1.13238 9.34637 1.35457 10.4155C1.5837 11.518 2.11289 11.9393 2.65835 11.9393C3.33897 11.9393 4.00982 11.5132 4.81734 10.4252C5.5789 9.39916 6.35026 7.93829 7.29507 6.1211ZM11.547 4.06505C10.6946 4.01037 9.61832 4.51513 8.70483 6.1212C9.64963 7.93836 10.4211 9.39917 11.1827 10.4252C11.9902 11.5132 12.6611 11.9393 13.3417 11.9393C13.8872 11.9393 14.4164 11.518 14.6455 10.4155C14.8677 9.34637 14.7259 7.85891 14.0937 6.33794C13.4778 4.85611 12.4703 4.12429 11.547 4.06505Z" fill="currentColor" />
</svg>

<svg xmlns="http://www.w3.org/2000/svg" width="16" height="16" viewBox="0 0 16 16"><path d="M8 4.918c1.005-1.426 2.29-2.14 3.63-2.054 1.582.102 2.911 1.298 3.63 3.029.704 1.692.896 3.417.617 4.757-.271 1.308-1.078 2.493-2.535 2.493-1.323 0-2.321-.86-3.183-2.02-.701-.945-1.396-2.206-2.159-3.66-.763 1.454-1.458 2.715-2.159 3.66-.862 1.16-1.86 2.02-3.183 2.02-1.457 0-2.264-1.185-2.535-2.493-.279-1.34-.087-3.065.616-4.757.72-1.731 2.05-2.927 3.63-3.029C5.71 2.778 6.995 3.492 8 4.918M7.295 6.12c-.913-1.606-1.99-2.11-2.842-2.056-.923.06-1.93.791-2.547 2.273-.632 1.52-.774 3.008-.551 4.077.229 1.103.758 1.524 1.303 1.524.681 0 1.352-.426 2.16-1.514.76-1.026 1.532-2.487 2.477-4.304m4.252-2.056c-.852-.055-1.929.45-2.842 2.056.945 1.817 1.716 3.278 2.478 4.304.807 1.088 1.478 1.514 2.159 1.514.545 0 1.074-.421 1.303-1.524.223-1.069.08-2.556-.551-4.077-.616-1.482-1.624-2.214-2.547-2.273"/></svg>
